shader_type canvas_item;

uniform vec2 cam;

void vertex() {
	//float strength = UV.y + 1.0;
	//VERTEX.x = VERTEX.x + VERTEX.x * strength * 0.5;
}

void fragment() {
	// Called for every pixel the material is visible on.
}

//void light() {
//	// Called for every pixel for every light affecting the CanvasItem.
//	// Uncomment to replace the default light processing function with this one.
//}
